X:1
T:PARTITA  II
T:PARTITA  II  d-moll
T:J.S.Bach
T:Nach der Bearbeitung von Carl Flesch
T:ALLEMANDE
T:PARTITA  II  d-moll
T:GIGUE
T:J.S.Bach
T:Bearbeitet von Carl Flesch
C:J.S.Bach
Z:Nach der Bearbeitung von Carl Flesch
%%score ( 1 2 )
L:1/8
Q:1/4=60
M:4/4
K:F
V:1 treble nm="Violine" snm="Vl."
V:2 treble 
V:1
!f! !0!!1!D/ | D>E !1!!IV
!F/G/A/B/ !1!^C/(.B/A/)G/ e>G | %2
 (F/^C/)(D/!1!A,/) (B,/D/)!>(!(F/G/) !4!^C/!p!A,/!3!C/E/ (3(A/G/F/)(3(G/F/E/)!>)! | %3
 F/!<(!D/!1!F/A/ (3(B/A/)G/(3(A/G/F/) !1!E/G/B/d/ (3(c/B/A/)!>(!(3(B/A/)G/!<)!!>)! | %4
 !4!A/!p!F/A/c/ (f/g/a/)c/ d/!<(!(!tenuto!A/!tenuto!B/)!tenuto!d/ (g/a/b/)!1!d/!<)! | %5
 e/(!tenuto!B/!tenuto!c/)!tenuto!G/ (A/B/c/)!1!E/ F/!f!A,/B,/!0!G/ !1!C/!mp!(!tenuto!E/!tenuto!G/)!tenuto!B/ | %6
 (!1!A/G/F/)!p!!0!A/ !0!d/!2!F/E/D/ !1!^C/(e/f/g/) A/(g/f/)e/ | %7
 (f/e/)d/!f!!3!E/ D/C/!3!=B,/A,/ ^G,/!p!(!1!=B/c/d/) E/!<(!(d/c/B/)!<)! | %8
!mf! (c/=B/A/)B/ !1!c/((f/4e/4))d/.c/ (!4!B/A/G/)!0!A/ B/((e/4d/4))c/.B/ | %9
 (!4!A/G/!>(!F/G/4A/4 D/)!p!(!4!c/=B/)A/ (!3!^G/^F/)E/F/ !1!G/A/B/c/!>)! | %10
"_cresc." (!3!d/e/f/e/ d/c/=B/A/) (^g/a/)=b/a/ (g/^f/)e/!2!d/ | %11
!f! ((c/d/4)e/4)=f/.a/ ((=B/c/4)d/4!4!e/).g/ ((A/B/4c/4d/).f/) ((!1!G/A/4B/4c/)).e/ | %12
 (!1!F/G/4A/4=B/)d/ (!1!E/^F/4)^G/4!4!A/c/!p! (!2!D/^C/!1!D/)=F/ _B/(!tenuto!=c/!tenuto!d/)!tenuto!B/ | %13
 (!2!F/!<(!E/)!1!F/B/ d/(!tenuto!e/!tenuto!f/)!tenuto!d/ (!1!B/A/)B/d/ f/((g/4a/4)b/)!tenuto!.a/!<)! | %14
!f! ^g/(=b/4a/4^g/)(!3!=f/4e/4) d/(f/4e/4)d/(=B/4A/4 ^G/)((B/e/))!tenuto!.g/ b/e/(d'/c'/4)b/4 | %15
 ((c'/=b/4))a/4!2!^g/!tenuto!.a/ (3(c/d/e/)(3(d/c/)=B/ !0!A>!III!!1!B!mf! ^c/d/e/!0!!3!=G/ | %16
 (!4!F/!<(!D/)(F/A/) (d/!1!f/)!3!^g/!0!D/ [A,E^ca]3 z/!<)! ::!f! !2!!0!e/ | %18
 e>f e/d/!4!^c/=B/ A/((G/4A/4))_B/!tenuto!A/ G/!IV!!3!F/E/F/ | %19
!>(! (G/F/)(E/D/) f/!p!A/B/D/ (C/G/B/)_e/!p! A/c/f/e/!>)! | %20
!p! d/((A/B/)!tenuto!d/) !tenuto!_E/G/A/=B/!<(! c/d/_e/c/!mp! (3(a/g/^f/)(3(g/f/=e/)!<)! | %21
 (^f/c/4d/4)_e/d/ c/((B/4A/4d/))!tenuto!.c/!f! ((B/c/4)d/4)_e/.g/ ((!0!A/B/4c/4)d/).=f/ | %22
 ((!1!G/A/4B/4c/))._e/ ((!1!F/G/4)A/4B/).d/ !tenuto!!1!_E/(!4!g/4f/4)e/(c/4B/4 A/)(c/4B/4)A/(!2!^F/4=E/4) | %23
 D/(^F/A/c/)!<(! (3(_e/d/)c/(3(!3!^f/=e/d/)!f! (b/!3!a/4)g/4^f/g/ (3(B/c/d/)(3(c/B/)A/!<)! | %24
 !1!G>!p!A !2!B/c/d/!3!F/ E/!1!C/E/G/ B/((e/4f/4)g/)!tenuto!.B/ | %25
 A/!mf!!1!F/A/c/ f/A/G/F/ (C/G/)c/d/ e/(!tenuto!B/!tenuto!A/)!tenuto!G/ | %26
 F/!0!D/!2!F/A/ d/F/E/D/ (A,/E/)A/_B/ c/!p!(!tenuto!G/!tenuto!F/)!tenuto!_E/ | %27
 D/!mf!!1!B,/D/F/ B/A/G/F/ (!2!e/f/4g/4)f/e/ d/(!tenuto!!2!c/!tenuto!B/!tenuto!g/) | %28
!p! (!4!A/4G/4F/4E/4)F/!tenuto!!1!B,/ !tenuto!C/(!tenuto!E/!tenuto!G/)!tenuto!A/"^(cal.)" (B/A/)(G/F/)!mf! !0!a/!2!e/f/d/ | %29
 (!1!=B/d/f/)a/ g/(!tenuto!!0!e/!tenuto!!3!^c/!tenuto!g/) (D/!0!A/!2!c/)!4!g/!<(! f/(!tenuto!!1!c/!tenuto!d/)!tenuto!!4!_B/!<)! | %30
!mf! (G/B/d/)f/ _e/(!tenuto!c/!tenuto!A/)!tenuto!!3!e/!p! !1!B,/F/A/e/ d/!<(!(!tenuto!!3!A/!tenuto!B/)!tenuto!G/!<)! | %31
 (!1!E/G/)B/d/ c/!0!A/^F/!>(!!4!c/ B/(!tenuto!A/!tenuto!G/)!tenuto!=F/!p! (_E/D/)E/G/!>)! | %32
"^cresc, poco a poco" (!1!B/!0!A/B/)_e/ (g/^f/g/)b/ ^c/((A/4=B/4c/))!tenuto!.!2!=e/ G/(B/4A/4G/)(!IV
!!2!F/4E/4 | %33
 F/)(A/4G/4F/)(!3!E/4D/4"^allargando" A,/)!tenuto!E/!tenuto!d/!tenuto!^c/ [Dd]3 z/ :: %34
[K:F][M:12/8][Q:1/4=120]!mf! .u!4!A | ((DF).!0!A) ((d!4!e).f) e(g/f/e/)d/ ((!2!^cA).E) | %36
 ((^CE)).!0!A (((!0!ef)).g) f(a/g/f/)e/ ((dA).F) | %37
 D(f/e/)d/f/ b/a/g/f/e/d/ c/d/e/d/c/!0!e/ a/g/f/e/d/c/ | %38
 B/c/d/c/B/d/ g/f/e/d/^c/=B/ A/B/c/B/A/c/ e/d/c/B/A/G/ | %39
 F/(A/G/F/E/D/) A,(.d.^c) D>!p!EF/G/ A/_B/=c/d/e/f/ | %40
 g/e/c/G/E/G/ c/G/E/C/E/G/ A/G/F/!<(!G/A/B/ c/d/e/f/g/a/!<)! | %41
!mf! (!2!b/a/b/)d'/e/g/ (!2!a/g/a/)c'/d/f/ (!2!g/f/g/)b/c/!4!e/ (f/e/f/)a/g/f/ | %42
 !4!e/d/!4!e/f/!0!e/d/ c/B/c/d/c/B/ (A/B/c/)!4!f/c/A/ (F/G/!4!A/)c/!0!A/F/ | %43
 (D/_E/F/)!4!B/F/D/ (B,/C/!4!D/)F/!0!D/B,/!<(! G,/B,/D/G/B/d/ g/b/g/d/B/G/!<)! | %44
!f! (=E/G/c/)e/g/b/ (c/B/c/)b/c/b/ (F/A/c/)e/f/a/ (c/B/c/)a/c/a/ | %45
!p! (E/G/c/)e/g/b/ (c/B/c/)b/c/b/ (F/A/c/)e/f/a/ (c/B/c/)a/c/a/ | %46
!f! (B/d/f/)a/b/d'/ (e/d/e/)d'/e/d'/ (!0!A/!1!c/e/)g/a/c'/ (d/c/d/)c'/d/c'/ | %47
 (!3!G/B/d/)f/g/b/ (c/B/c/)b/c/b/ (F/A/c/)e/f/a/"_dim." (c/B/)c/a/f/d/ | %48
 B/A/B/c/d/B/ G/!mp!F/G/A/B/G/ E/D/E/F/G/E/!<(! C/E/G/c/!mf!e-!<)! | %49
 e/!>(!(B/!0!A/G/)F/E/ !4!D/^C/=B,/A,/G/E/!mp! F/!<(!D/F/A/d/^c/ d/A/d/f/!mf!=b/a/!>)!!<)! | %50
 =b/!>(!(f/!0!e/)d/c/=B/ !4!A/^G/^F/E/d/!mp!=B/ c/A/!1!c/!3!e/a/^g/ (a/b/c'/)g/a/c'/!>)! | %51
"_dim." (!1!f/g/a/)e/f/a/ (!2!d/e/f/)^c/d/f/ ^G>!p!A=B/c/ (d/e/f/)d/=b/d/ | %52
 (c/d/e/)c/a/c/ (!1!=B/c/d/)B/^g/B/ (!1!c/d/e/)c/a/c/ (!2!d/e/f/)d/=b/d/ | %53
 (c/d/e/)!1!=B/c/A/ (B/c/)d/A/B/^G/ A/!mf!A,/!4!^C/E<=GE/=C/A,/^C/E/ | %54
!<(! F/D/F/A/d/^c/ d/A/d/(!tenuto!.f/!tenuto!.a/)!tenuto!.^g/!f! (a/e/)^c/A/E/^C/ A,2!<)! :: %55
!mf! .ue | (((A^c)).e) ((GA)).B ^C(E/D/)C/=B,/ ((A,C)).E | %57
 G/A/B/A/G/B/ e/d/^c/=B/A/G/ F/E/F/G/A/F/ D>!p!d=c/_B/ | %58
 !>!A/(c/B/A/G/)^F/ _e/d/c/B/A/G/ ^F/(A/G/^F/=E/D/) a/g/^f/=e/d/c/ | %59
 B/(d/c/)B/A/G/ c'/b/a/g/^f/e/"_cresc." (d/!0!e/)=f/a/g/=f/ _e/d/c/B/A/G/ | %60
!f! (^F/!0!A/!3!d/)^f/!2!a/c'/ (!2!d/c/d/)c'/d/c'/ (!3!G/B/d/)f/g/b/ (d/c/d/)b/d/b/ | %61
!p! (^F/!0!A/!3!d/)^f/!2!a/c'/ (!2!d/c/d/)c'/d/c'/ (!3!G/B/d/)f/g/b/ (d/c/d/)b/d/b/ | %62
!f! (!3!C/_E/G/)B/c/_e/ (F/E/)F/e/F/e/ (B,/D/F/)A/B/d/ (_E/D/E/)d/E/d/ | %63
"_dim." (A,/C/)_E/!1!G/A/c/ (D/C/)D/c/D/c/ (G,/!1!B,/D/)!<(!^F/G/B/ (!0!D/!2!F/G/)B/d/g/!<)! | %64
!mf! _e/d/e/f/g/e/ c/B/c/d/e/c/ !4!A/G/!0!A/B/c/A/ !1!^F/!3!A/d/f/a/c'/ | %65
 (b/a/)(c'/b/a/)g/ d/g/!1!^f/!2!g/a/f/ g/!p!(_e/d/)c/B/A/ !3!B/!<(!G/A/B/c/d/!<)! | %66
 (=e/f/g/)e/B/e/ (C/E/G/)B/A/G/ (!0!A/B/)c/A/F/!4!A/ (B,/D/F/)A/F/D/ | %67
 (^c/d/e/)c/G/c/ (A,/!4!^C/)E/G/F/E/ F/D/F/A/d/^c/ d/A/d/f/a/=c/ | %68
!f! B/(a/g/f/e/d/) c/d/e/f/g/B/ A/(g/f/e/d/c/) B/c/d/e/f/A/ | %69
 G/f/e/d/^c/=B/ A/B/c/d/e/G/!>(! F/A/d/A/F/A/ D/F/A/F/D/F/!>)! | %70
!p! (B,/F/)d/f/e/^c/ (A,/F/d/)f/e/^c/ (G,/!<(!F/d/)f/e/d/ b/a/g/f/e/d/!<)! | %71
 ^c/e/f/g/a/e/ (d/!>(!c/=B/A/)(e/G/)!p! (F/G/A/)F/d/F/ (E/F/)G/E/=c/E/!>)! | %72
 (D/E/)F/D/B/D/ (C/D/E/)C/A/C/ (B,/C/D/)B,/G/B,/ (G/A/B/)G/_e/G/ | %73
 (A,/=B,/^C/)A,/G/A,/ (!1!G/A/B/)G/!4!^c/G/"_cresc." (F/G/)A/F/d/A/ (!2!d/e/f/)d/=b/d/ | %74
"_cresc." ^G/A/=B/^c/d/e/ (f/e/)d/c/d/G/ A/c/d/e/f/=g/ a/_b/(e/f/g/)c/ | %75
 d/!f!D/F/A/d/e/ f/d/f/(!tenuto!.a/!tenuto!.d'/)!tenuto!.^c'/ (d'/a/)f/d/A/F/ !fermata!D2 :| %76
V:2
 D/ | D3/2 x13/2 | x8 | x8 | x8 | x8 | x8 | x8 | x8 | x8 | x8 | x8 | x8 | x8 | x8 | x8 | x15/2 :: %17
 e/ | e3/2 x13/2 | x8 | x8 | x8 | x8 | x8 | x8 | x8 | x8 | x8 | x8 | x8 | x8 | x8 | x8 | x15/2 :: %34
[K:F][M:12/8] x | x12 | x12 | x12 | x12 | x12 | x12 | x12 | x12 | x12 | x12 | x12 | x12 | x12 | %48
 x12 | x12 | x12 | x12 | x12 | x12 | x11 :: x | x12 | x12 | x12 | x12 | x12 | x12 | x12 | x12 | %64
 x12 | x12 | x12 | x12 | x12 | x12 | x12 | x12 | x12 | x12 | x12 | x11 :| %76

